public/favicon.svg

<svg width="48" height="47" viewBox="0 0 48 47" fill="none" xmlns="http://www.w3.org/2000/svg">
<g style="mix-blend-mode:multiply">
<g style="mix-blend-mode:multiply">
<path d="M33.7158 32.7787L47.9999 33.215L41.4396 24.7802H38.2321C37.408 27.7049 35.8972 30.4599 33.7239 32.7787" fill="#FFA700"/>
</g>
<path d="M31.5991 34.7339C32.3586 34.1279 33.0695 33.4735 33.7159 32.7787L19.9892 32.3586C15.9819 32.5121 11.9585 30.7993 9.30846 27.3898C4.93759 21.7748 5.95558 13.6793 11.5707 9.30846C17.1857 4.93758 25.2811 5.95557 29.652 11.5707C31.6557 14.1479 32.5202 17.2504 32.3343 20.2639L24.5378 20.7729C24.9257 19.2621 24.6348 17.5978 23.6087 16.2647C21.8394 13.9863 18.5511 13.5743 16.2728 15.3517C13.9944 17.1211 13.5824 20.4013 15.3517 22.6877C16.3132 23.9158 17.7109 24.5944 19.149 24.6914H19.1975C19.3914 24.6994 19.5772 24.7075 19.7711 24.6914L33.1018 24.7398L38.216 24.756C39.8319 19.0116 38.7896 12.5967 34.847 7.52295C28.2462 -0.968352 16.0142 -2.50341 7.52294 4.10542C-0.968353 10.7062 -2.50341 22.9382 4.10542 31.4295C7.07051 35.2429 11.1667 37.6424 15.5537 38.5473L18.8258 37.1738L17.008 39.9854L16.0708 46.7962L31.5991 34.7177V34.7339Z" fill="black"/>
</g>
</svg>

<?xml version="1.0" encoding="UTF-8"?>
<svg xmlns="http://www.w3.org/2000/svg" viewBox="0 0 48 47">
  <defs>
    <style>
      .cls-1 {
        isolation: isolate;
      }

      .cls-2 {
        fill: #ffa700;
      }

      .cls-3 {
        mix-blend-mode: multiply;
      }
    </style>
  </defs>
  <g class="cls-1">
    <g id="Layer_1" data-name="Layer 1">
      <g>
        <g class="cls-3">
          <path class="cls-2" d="M33.72,32.78l14.28.44-6.56-8.43h-3.21c-.82,2.92-2.33,5.68-4.51,8"/>
        </g>
        <path class="cls-2" d="M31.6,34.73c.76-.61,1.47-1.26,2.12-1.96l-13.73-.42c-4.01.15-8.03-1.56-10.68-4.97-4.37-5.61-3.35-13.71,2.26-18.08,5.61-4.37,13.71-3.35,18.08,2.26,2,2.58,2.87,5.68,2.68,8.69l-7.8.51c.39-1.51.1-3.18-.93-4.51-1.77-2.28-5.06-2.69-7.34-.91-2.28,1.77-2.69,5.05-.92,7.34.96,1.23,2.36,1.91,3.8,2h.05c.19,0,.38.02.57,0l13.33.05,5.11.02c1.62-5.74.57-12.16-3.37-17.23C28.25-.97,16.01-2.5,7.52,4.11-.97,10.71-2.5,22.94,4.11,31.43c2.97,3.81,7.06,6.21,11.45,7.12l3.27-1.37-1.82,2.81-.94,6.81,15.53-12.08v.02Z"/>
      </g>
    </g>
  </g>
</svg>
